X: 17
T:Drowsy Maggie
M:4/4
L:1/8
Q:1/8=390
K:G
|:"Em"E2BE dEBE|E2BG "D"AFDF|"Em"E2BE dEBE|"G"BAB^c "D"dAFD|!
"Em"E2BE dEBE|E2BG "D"AFDF|"Em"E2BE dEBE|"G"BAB^c "D"dAFA:|!
K:D
|:"D"d2fd "A7"cdec|"D"defd faaf|d2fd "A7"cdec|"G"BABc "D"dAFD|!
"D"d2fd "A7"cdec|"D"defd faa2|bgaf gfed|"G"BAB^c "D"dAFD:|
